**kern	**kern	**dynam
*part1	*part1	*part1
*staff2	*staff1	*
*I"Piano	*	*
*clefF4	*clefG2	*
*k[f#c#g#]	*k[f#c#g#]	*
=1	=1	=1
(8FF#L	(8AL 8a	.
8C#	8c#	.
8F#	8A 8a	.
8AJ)	8c#J)	.
=	=	=
(8DDL 8D	(8dL 8dd	.
8AA	8f#	.
8BBB	8d 8dd	.
8BBJ)	8f#J)	.
=	=	=
*	*^	*
8CC#L	(8e#XL 8cc#	4c#	.
8C#J	8g#	.	.
8DDL 8D	8B 8b	4f#	.
8DD#XJ 8D#X	8AJ) 8a	.	.
*	*v	*v	*
=	=	=
(8EEL	(8G#L 8g#	.
8BB	8e	.
8E	8B 8b	.
8G#J)	8eJ)	.
=	=	=
*	*^	*
4E 4B	2ee	4e 4b	p
8EL 8B	.	8eL 8b	.
8EJ 8B	.	8eJ 8b	.
=	=	=	=
8AL 8c#	2ee	8aL 8cc#	.
8EJ 8B	.	8eJ 8b	.
4C# 4A	.	4c# 4a	.
=	=	=	=
4E 4B	2ee	4e 4b	.
8AL 8c#	.	8aL 8cc#	.
8C#J 8A	.	8c#J 8a	.
=	=	=	=
8AL 8c#	2ee	8aL 8cc#	.
8C#J 8A	.	8c#J 8a	.
4E 4B	.	4e 4b	.
*	*v	*v	*
=	=	=
*-	*-	*-
!!!system-decoration: {(s1,s2)}
